X:1
T:Dwell in Me, O Blessed Spirit
T:Text: Martha J. Lankton, 1899, alt. Tune: Georgia G. Berky, 1899
T:87 87 with refrain DWELL IN ME www.hymnary.org/text/dwell_in_me_o_blessed_spirit
T:Dwell in Me, O Blessed Spirit
T:This hymn is in the public domain. You may freely use this score for personal and congregational worship. If you reproduce the score, please credit Hymnary.org as the source. 
T:This hymn is in the public domain. You may freely use this score for personal and congregational worship. If you reproduce the score, please credit Hymnary.org as the source. 
Z:This hymn is in the public domain. You may freely use this score for personal and congregational worship. If you reproduce the score, please credit Hymnary.org as the source.
%%score ( 1 2 ) ( 3 4 )
L:1/8
M:3/4
K:C
V:1 treble nm="SOPRANO ALTO" snm="S. A."
V:2 treble 
V:3 bass nm="TENOR BASS" snm="T. B."
V:4 bass 
V:1
"^C""^1""^2" EF | G3 A Gc |"^G7" c2 B2 Bc | d3 B AB |"^C" c4 | cc |"^F" c3 c BA |"^C" G2 E2 EE | %8
w: Dwell in|me, O bless- ed|Spir- it! How I|need your help di-|vine!|In the|way of life e-|ter- nal, keep, O|
w: Grant to|me your sa- cred|pres- ence; then my|faith will ne'er de-|cline.|Com- fort|me and help me|on- ward; fill with|
"^G7" G3 F ED |"^C" C4 ||"^Refrain" cc |"^F" c3 c BA |"^C" G2 G2 GG |"^G" G3 G GG |"^C" G4 |1 EF | %16
w: keep this heart of|mine.|Dwell in|me, O bless- ed|Spir- it, gra- cious|Teach- er, Friend di-|vine!|For the|
w: love this heart of|mine.|||||||
 G3 A Ge |"^Dm" d2 A2 BA |"^G7" G3 A Bd |"^C" c4 x2 |] %20
w: king- dom work that|calls me, O pre-|pare this heart of|mine.|
w: ||||
V:2
 CD | E3 F EG | F2 F2 FF | F3 F FF | E4 | EG | A3 A GF | E2 C2 CC | B,3 B, B,B, | C4 || EG | %11
 A3 A GF | E2 E2 EE | D3 F ED | E4 |1 CD | E3 F EG | F2 F2 FF | F3 F FF | E4 x2 |] %20
V:3
 G,G, | C3 C CG, | G,2 G,2 G,G, | G,3 G, G,G, | G,4 | G,C | C3 C CC | C2 G,2 G,G, | G,3 A, G,F, | %9
 E,4 || G,C | C3 C CC | C2 C2 CC | B,3 D CB, | C4 |1 G,G, | C3 C CC | A,2 D2 DC | B,3 C DB, | %19
 C4 x2 |] %20
V:4
 C,C, | C,3 C, C,E, | D,2 D,2 D,C, | B,,3 G,, G,,G,, | C,4 | C,E, | F,3 F, F,F, | C,2 C,2 C,C, | %8
 G,,3 G,, G,,G,, | C,4 || C,E, | F,3 F, F,F, | C,2 C,2 C,C, | G,,3 G,, G,,G,, | C,4 |1 C,C, | %16
 C,3 C, C,C, | F,2 F,2 F,F, | G,3 G, G,G, | C,4 x2 |] %20

